!!!!SEGMENT: pl-kk--kk-i-2--026_anonim--grates-nunc-omnes-reddamus.krn
!!!cenid: 16xx:1644
!!!COM: Anonim
!!!COM-rismID:
!!!CDT:
!!!CNT:
!!!OTL: Grates nunc omnes reddamus
!!!PDT:
!!!AGN: Sacred
!!!SMS-siglum: PL-Kk
!!!SMS-shelfmark: Kk.I.2
!!!SMS-shelfwork: 026 W
!!!NIFC-rismSourceID: 300258042
!!!NIFC-islandoraID: pl-kk:750
!!!URL-pdf-islandora: https://repozytorium.nifc.pl/islandora/object/pl-kk%3A750/datastream/PDF/view
!!!URL-scan: https://polish.musicsources.pl/pl/lokalizacje/galeria/rekopisy/5828 @EN{Scan on Polish Music Herritage in Open Access Website} @PL{Skany w portalu Dziedzictwo Muzyki Polskiej w otwartym dostępie}
!!!ONB-nifc: skany: C: 0053; A: 0155; T: 0257; B: 0355;
!!!AIN: 1 alto 1 bass 1 soprn 1 tenor
!!!key: G:mix
**kern	**text	**kern	**text	**kern	**text	**kern	**text
*part4	*part4	*part3	*part3	*part2	*part2	*part1	*part1
*staff4	*staff4	*staff3	*staff3	*staff2	*staff2	*staff1	*staff1
*I"BASVS	*	*I"TENOR	*	*I"ALTVS	*	*I"DISCANTVS	*
*I'B	*	*I'T	*	*I'A	*	*I'S	*
*Ibass	*	*Itenor	*	*Ialto	*	*Isoprn	*
*ICvox	*	*ICvox	*	*ICvox	*	*ICvox	*
*clefF4	*	*clefC4	*	*clefC3	*	*clefG2	*
*k[]	*	*k[]	*	*k[]	*	*k[]	*
*G:mix	*	*G:mix	*	*G:mix	*	*G:mix	*
*M2/1	*	*M2/1	*	*M2/1	*	*M2/1	*
*met(C|)	*	*met(C|)	*	*met(C|)	*	*met(C|)	*
*all\right	*	*	*	*all\right	*	*	*
=1-	=1-	=1-	=1-	=1-	=1-	=1-	=1-
1F	Gra-	1F	Gra-	1A	Gra-	00r	.
4E/	-tes	1G	-tes	1B	-tes	.	.
4D/	.	.	.	.	.	.	.
4C/	.	.	.	.	.	.	.
!LO:TX:t=P:problem=kreska pseudotaktowa	!	!	!	!	!	!	!
4BB/	.	.	.	.	.	.	.
=2-	=2-	=2-	=2-	=2-	=2-	=2-	=2-
2AA/	.	1A	nu(n)c	2c/	nu(n)c	.	.
*	*	*	*	*2\right	*	*	*
2.D/	nu(n)c	.	.	2.d\	om-	.	.
.	.	1A	o(m-	.	.	.	.
4E/	.	.	.	4B/	.	.	.
!LO:TX:t=P:problem=kreska pseudotaktowa	!	!	!	!	!	!	!
2F/	om-	.	.	1d\	.	.	.
=3-	=3-	=3-	=3-	=3-	=3-	=3-	=3-
1E	-nes	1G	-n)es	.	.	1r	.
.	.	.	.	2c/	-nes	.	.
1D	.	1A	.	1d	red-	1f	Gra-
=4-	=4-	=4-	=4-	=4-	=4-	=4-	=4-
!LO:TX:t=P:problem=kreska pseudotaktowa	!	!	!	!	!	!	!
1C	.	1c	.	2.e/	-da-	1g	-tes
.	.	.	.	4d/	.	.	.
2r	.	1c	.	2e/	.	1a	nu(nc)
2.F/	red-	.	.	1f\	.	.	.
=5-	=5-	=5-	=5-	=5-	=5-	=5-	=5-
.	.	1A	.	.	.	1a	o(m-
4E/	-da-	.	.	.	.	.	.
!LO:TX:t=P:problem=kreska pseudotaktowa	!	!	!	!	!	!	!
2F/	-mus	.	.	4e/	.	.	.
.	.	.	.	4d/	.	.	.
1C	.	1c	.	1e	.	1g	-n)es
=6-	=6-	=6-	=6-	=6-	=6-	=6-	=6-
2.F/	do-	1c	.	1f	-mus	1a	red-
4E/	-mi-	.	.	.	.	.	.
4F/	-no	1c	.	2r	.	1cc	-da-
4G/	.	.	.	.	.	.	.
!LO:TX:t=P::problem=kreska pseudotaktowa&colon;między nutą a kropką	!	!	!	!	!	!	!
2.A/	.	.	.	2f\	do-	.	.
=7-	=7-	=7-	=7-	=7-	=7-	=7-	=7-
.	.	1c	.	1e	-mi-	1cc	-mus
4G/	.	.	.	.	.	.	.
4F/	.	.	.	.	.	.	.
4E/	.	.	.	.	.	.	.
!LO:TX:t=P:problem=kreska pseudotaktowa	!	!	!	!	!	!	!
1D	.	1d	.	1f	-no	1a	do-
=8-	=8-	=8-	=8-	=8-	=8-	=8-	=8-
2r	.	1c	.	1g	De-	1cc	-mi-
2E/	qui	.	.	.	.	.	.
2.C/	.	1G	.	2.e\	-o	1cc	-(n)o
!LO:TX:t=P:problem=kreska pseudotaktowa	!	!	!	!	!	!	!
4D/	.	.	.	4f\	.	.	.
*custos:E	*	*	*	*	*	*	*
!LO:PB:g=original	!	!	!	!	!	!	!
=9-	=9-	=9-	=9-	=9-	=9-	=9-	=9-
2E/	ſu-	1r	.	2g\	qui	1cc	de-
2.F/	-a	.	.	2.a\	ſu-	.	.
.	.	1c	.	.	.	1cc	-o
4E/	.	.	.	4g\	-a	.	.
4D/	.	.	.	4f\	.	.	.
4C/	.	.	.	4e\	.	.	.
*	*	*	*	*custos:d	*	*	*
!	!	!	!	!LO:LB:g=original	!	!	!
=10-	=10-	=10-	=10-	=10-	=10-	=10-	=10-
!LO:TX:t=P:problem=kreska pseudotaktowa	!	!	!	!	!	!	!
1G	.	1B	.	1d	na-	1dd	qui
2r	.	1c	.	1e	-ti-	2cc/	.
2C/	na-	.	.	.	.	1g/	.
=11-	=11-	=11-	=11-	=11-	=11-	=11-	=11-
*lig	*	*	*	*	*	*	*
1D	-ti-	1A	.	1d	-ui-	.	.
.	.	.	.	.	.	2f/	ſu-
1E	.	1G	.	1B	-ta-	1g	-a
*Xlig	*	*	*	*	*	*	*
=12-	=12-	=12-	=12-	=12-	=12-	=12-	=12-
!LO:TX:t=P:problem=kreska pseudotaktowa	!	!	!	!	!	!	!
1F	-ui-	1c	.	1A	-te	0r	.
*2\right	*	*	*	*	*	*	*
2.G\	-ta-	1B	.	2G/	.	.	.
.	.	.	.	1g\	.	.	.
4F/	.	.	.	.	.	.	.
=13-	=13-	=13-	=13-	=13-	=13-	=13-	=13-
2G\	.	1d	.	.	.	1r	.
2E/	-te	.	.	2f\	.	.	.
!LO:TX:t=P:problem=kreska pseudotaktowa	!	!	!	!	!	!	!
1A	.	1c	.	1e	.	1cc	nos
=14-	=14-	=14-	=14-	=14-	=14-	=14-	=14-
1r	.	0G	.	1d	.	1b	li-
1G	nos	.	.	2r	.	1dd	-be-
.	.	.	.	1g\	nos	.	.
=15-	=15-	=15-	=15-	=15-	=15-	=15-	=15-
1A	li-	1c	.	.	.	1cc	-ra-
.	.	.	.	2f\	li-	.	.
!LO:TX:t=P:problem=kreska pseudotaktowa	!	!	!	!	!	!	!
1G	-be-	1B	.	2g\	-be-	1g	-uit
.	.	.	.	2e\	-ra-	.	.
=16-	=16-	=16-	=16-	=16-	=16-	=16-	=16-
1F	-ra-	1c	.	1f	-uit	1r	.
!LO:TX:t=P:problem=kreska pseudotaktowa	!	!LO:LB:g=original	!	!	!	!	!
1F	-vit	1A	.	1f	.	1cc	de
=17-	=17-	=17-	=17-	=17-	=17-	=17-	=17-
1G	de	1G	.	2d/	.	1b	dia-
.	.	.	.	2e/	.	.	.
*	*	*	*	*lig	*	*custos:cc	*
!	!	!	!	!	!	!LO:LB:g=original	!
1A	dia-	0F	.	1c	de	1cc	-bo-
=18-	=18-	=18-	=18-	=18-	=18-	=18-	=18-
*lig	*	*	*	*	*	*	*
1D	-bo-	.	.	1d	.	1a	-li-
*	*	*	*	*Xlig	*	*	*
!LO:TX:t=P:problem=kreska pseudotaktowa	!	!	!	!	!	!	!
1E	.	1G	.	2B/	dia-	1g	-ca
.	.	.	.	2c/	-bo-	.	.
*Xlig	*	*	*	*	*	*	*
=19-	=19-	=19-	=19-	=19-	=19-	=19-	=19-
0D	-li-	0A	.	1d	-li-	0f	po-
.	.	.	.	1d	-ca	.	.
=20-	=20-	=20-	=20-	=20-	=20-	=20-	=20-
!LO:TX:t=P:problem=kreska pseudotaktowa	!	!	!	!	!	!	!
1E	-ca	1G	.	2r	.	1g	-te-
.	.	.	.	2g\	po-	.	.
0F	po-	0c	.	0f	-teſ-	0a	.
=21-	=21-	=21-	=21-	=21-	=21-	=21-	=21-
.	.	.	.	.	.	.	.
1G	-teſ-	1B	.	1e	-ta-	0g	.
=22-	=22-	=22-	=22-	=22-	=22-	=22-	=22-
0D	-ta-	0A	.	0d	-te	.	.
.	.	.	.	.	.	1f	-ſta-
=23-	=23-	=23-	=23-	=23-	=23-	=23-	=23-
0GGl;	-te	0Gl	.	0d;	.	0gl;	-te
*custos:D	*	*	*	*custos:d	*	*	*
!LO:LB:g=original	!	!	!	!LO:LB:g=original	!	!	!
=24||	=24||	=24||	=24||	=24||	=24||	=24||	=24||
*	*	*	*	*	*	*clefC1	*
1D	Hu-	1D	Hu-	1d	Hu-	1a	Hu-
2E\	-ic	1G	-ic	1B	-ic	4a/	-is
.	.	.	.	.	.	4g/	.
4D/	o-	.	.	.	.	4f/	.
!LO:TX:t=P:problem=kreska pseudotaktowa	!	!	!	!	!	!	!
4C/	-por-	.	.	.	.	4e/	.
=25-	=25-	=25-	=25-	=25-	=25-	=25-	=25-
2BB/	-tet	1G	.	1B	o-	2d/	o-
2GG/	.	.	.	.	.	1g	-por-
!LO:TX:t=P:problem=kreska pseudotaktowa	!	!	!	!	!	!	!
1D	.	1A	.	1d	-por-	.	.
.	.	.	.	.	.	2f/	-tet
=26-	=26-	=26-	=26-	=26-	=26-	=26-	=26-
2GG/	.	1G	.	2d\	-tet	1g	vt
1G	.	.	.	2B/	.	.	.
!	!	!LO:TX:t=P:problem=kreska pseudotaktowa	!	!	!	!	!
.	.	1D	o-	1.A	.	1a	ca-
!LO:TX:t=P:problem=kreska pseudotaktowa	!	!	!	!	!	!	!
2F\	vt	.	.	.	.	.	.
=27-	=27-	=27-	=27-	=27-	=27-	=27-	=27-
1G	ca-	1G	-por-	.	.	1g	-na-
.	.	.	.	2.d/	.	.	.
1D	-na-	1A	-tet	.	.	1f	.
.	.	.	.	4c/	.	.	.
.	.	.	.	2d/	.	.	.
=28-	=28-	=28-	=28-	=28-	=28-	=28-	=28-
!LO:TX:t=P:problem=kreska pseudotaktowa	!	!	!	!	!	!	!
1C	-mus	1c	.	2.G/	.	1e	-m(us)
.	.	.	.	4A/	.	.	.
2G\	.	1G	.	2B/	.	2d/	cu(m)
2C/	.	.	.	1e\	.	2e/	.
=29-	=29-	=29-	=29-	=29-	=29-	=29-	=29-
1D	.	1F	.	.	.	1f	an-
.	.	.	.	2d/	.	.	.
!LO:TX:t=P:problem=kreska pseudotaktowa	!	!	!	!	!	!	!
*	*	*	*	*	*	*lig	*
1C	.	1E	.	1e	.	1g	-ge-
=30-	=30-	=30-	=30-	=30-	=30-	=30-	=30-
2.c\	.	1F	.	1A	.	1a	.
4B\	.	.	.	.	.	.	.
*	*	*	*	*	*	*Xlig	*
*	*	*	*	*	*	*custos:a	*
!	!	!	!	!	!	!LO:PB:g=original	!
2A\	.	1D	.	2r	.	1a	-lis
4G\	.	.	.	1d\	.	.	.
4F\	.	.	.	.	.	.	.
=31-	=31-	=31-	=31-	=31-	=31-	=31-	=31-
1E	.	1G	.	.	.	2r	.
.	.	.	.	2c/	.	1g	sem-
1D	.	1A	.	1d	.	.	.
.	.	.	.	.	.	2f/	-per
=32-	=32-	=32-	=32-	=32-	=32-	=32-	=32-
!LO:TX:t=P:problem=kreska pseudotaktowa	!	!	!	!	!	!	!
1E	.	1G	.	1B	.	1g	glo-
2r	.	1c	.	1A	.	2e/	-ri-
2.F\	.	.	.	.	.	2.a/	-a
=33-	=33-	=33-	=33-	=33-	=33-	=33-	=33-
.	.	1A	.	2r	.	.	.
4E/	.	.	.	.	.	4g/	.
!LO:TX:t=P:problem=kreska pseudotaktowa	!	!	!	!	!	!	!
2F\	.	.	.	2A/	.	4f/	.
.	.	.	.	.	.	4e/	.
1G	.	1B-X	.	1d	.	2d/	.
.	.	.	.	.	.	1g/	in
=34-	=34-	=34-	=34-	=34-	=34-	=34-	=34-
1D	.	1A	.	2r	.	.	.
.	.	.	.	1d	.	2f/	ex-
1E	.	1G	.	.	.	1.g	-cel-
.	.	.	.	2c/	.	.	.
=35-	=35-	=35-	=35-	=35-	=35-	=35-	=35-
*	*	*	*	*lig	*	*	*
2.D/	.	0A	.	0d	.	.	.
.	.	.	.	.	.	4f/	.
4C/	.	.	.	.	.	4e/	.
!LO:TX:t=P:problem=kreska pseudotaktowa	!	!	!	!	!	!	!
1D	.	.	.	.	.	1f	.
=36-	=36-	=36-	=36-	=36-	=36-	=36-	=36-
0GGl;	.	0Gl	.	0Bl\;<	.	0gl	-ſis
*	*	*	*	*Xlig	*	*	*
==	==	==	==	==	==	==	==
*-	*-	*-	*-	*-	*-	*-	*-
!!!system-decoration: [(*)]
!!!RDF**kern: < = below
!!!RDF**kern: l = terminal long
!!!ENC: Berenika Jozajtis
!!!END: 2022-01-14
!!!ENC: Andrzej Kubiczek
!!!END: 2022-01-21
